papirus/32x32/apps/chrome-knipolnnllmklapflnccelgolnpehhpl.svg

<?xml version="1.0" encoding="UTF-8" standalone="no"?>
<!-- Generator: Adobe Illustrator 16.0.0, SVG Export Plug-In . SVG Version: 6.00 Build 0) -->

<svg
   xmlns:dc="http://purl.org/dc/elements/1.1/"
   xmlns:cc="http://creativecommons.org/ns#"
   xmlns:rdf="http://www.w3.org/1999/02/22-rdf-syntax-ns#"
   xmlns:svg="http://www.w3.org/2000/svg"
   xmlns="http://www.w3.org/2000/svg"
   xmlns:sodipodi="http://sodipodi.sourceforge.net/DTD/sodipodi-0.dtd"
   xmlns:inkscape="http://www.inkscape.org/namespaces/inkscape"
   version="1.1"
   id="Layer_1"
   x="0px"
   y="0px"
   width="32"
   height="32"
   viewBox="-0.001 0 32 31.999999"
   xml:space="preserve"
   inkscape:version="0.91 r13725"
   sodipodi:docname="chrome-knipolnnllmklapflnccelgolnpehhpl.svg"><metadata
     id="metadata30"><rdf:RDF><cc:Work
         rdf:about=""><dc:format>image/svg+xml</dc:format><dc:type
           rdf:resource="http://purl.org/dc/dcmitype/StillImage" /><dc:title></dc:title></cc:Work></rdf:RDF></metadata><defs
     id="defs28" /><sodipodi:namedview
     pagecolor="#ffffff"
     bordercolor="#666666"
     borderopacity="1"
     objecttolerance="10"
     gridtolerance="10"
     guidetolerance="10"
     inkscape:pageopacity="0"
     inkscape:pageshadow="2"
     inkscape:window-width="1600"
     inkscape:window-height="850"
     id="namedview26"
     showgrid="false"
     inkscape:zoom="1"
     inkscape:cx="16.271695"
     inkscape:cy="17.314632"
     inkscape:window-x="0"
     inkscape:window-y="25"
     inkscape:window-maximized="1"
     inkscape:current-layer="Layer_1" /><path
     inkscape:connector-curvature="0"
     style="fill:#16a05d;fill-opacity:1"
     d="M 27.804825,11.877063 C 27.362471,9.5601363 26.306394,7.5364006 24.63818,5.8093561 23.934023,5.0802576 23.144975,4.4467087 22.274202,3.9088616 20.652076,2.9071119 18.885033,2.2933425 16.968796,2.0759213 16.735186,2.0492953 16.498249,2.0527943 16.267965,1.9999993 l -1.653327,0 c -0.01789,0.040015 -0.05622,0.025409 -0.08663,0.028148 -0.425726,0.036059 -0.849392,0.082617 -1.269573,0.159148 -3.070509,0.5586912 -5.5920743,2.0069986 -7.5437885,4.3464431 -1.605338,1.9239255 -2.489414,4.1309996 -2.6804199,6.5918596 -0.092494,1.192697 -0.00285,2.374287 0.2692454,3.540205 0.2020927,0.867251 0.5039646,1.705136 0.9097335,2.506049 0.035632,0.06816 0.070796,0.136325 0.1070651,0.204488 0.6666207,1.261012 1.524089,2.384785 2.5986959,3.355344 0.5657326,0.510917 1.1704269,0.973146 1.8250108,1.372537 1.7331867,1.056799 3.6072377,1.639903 5.6145897,1.847369 0.440433,0.04552 0.440433,0.04552 0.440433,0.04552 0.146026,0.002 0.20105,0.03652 0.2001,0.17984 -0.0066,1.222974 -0.0038,2.446101 -0.0035,3.669228 1.59e-4,0.04747 0.0039,0.09479 0.0068,0.153822 0.532453,0.04399 0.990439,-0.221332 1.407293,-0.417734 2.077724,-1.01417 3.99818,-2.257029 5.731766,-3.771077 0.389455,-0.340053 0.762123,-0.696387 1.120537,-1.067478 0.15347,-0.158692 0.305673,-0.320122 0.45946,-0.478661 0.237569,-0.244047 0.443146,-0.516699 0.667095,-0.773679 0.258635,-0.296386 0.490819,-0.611487 0.719836,-0.928566 0.506341,-0.700798 0.958515,-1.431875 1.338626,-2.204184 0.192273,-0.390414 0.37536,-0.783872 0.537383,-1.186611 0.0054,-0.0076 0.01267,-0.0143 0.01615,-0.02252 0.441563,-1.102777 0.724588,-2.243895 0.875207,-3.414682 0.05259,-0.40776 0.08663,-0.818107 0.108173,-1.228148 0.04593,-0.882922 -0.01346,-1.760822 -0.179128,-2.629593 z"
     id="path4173"
     sodipodi:nodetypes="cccccccccccccccsccccccccccccccccc" /><path
     id="path4324"
     d="m 13.34275,11.000506 c -1.561439,0.0018 -3.122327,0.0011 -4.6835938,0.002 -0.118639,0 -0.2308793,0.02502 -0.3339843,0.08789 -0.265452,0.160822 -0.3513925,0.397953 -0.3203125,0.6875 9e-4,0.0149 0.00195,0.03002 0.00195,0.04492 -0.0012,1.547336 -0.00339,2.431345 -0.00391,3.978515 0,0.392956 0.2764826,1.188813 0.6796876,1.195313 0.1075429,0.0018 0.2148926,0.0018 0.3222656,0.002 0.987699,0.0019 2.0067836,0.0039 2.9941406,0.0059 -0.07853,0.434153 -0.283078,0.953971 -0.625,1.261719 -0.284906,0.256289 -0.38401,0.369932 -0.75,0.451172 -0.288667,0.06386 -0.513331,0.159748 -0.513672,0.384765 -2e-4,0.06436 0.0026,0.12867 0.0039,0.19336 l -0.0078,0.878906 c 0.0013,0.163635 0.0015,0.326764 0.0039,0.490234 0.0029,0.233289 0.07512,0.364159 0.314453,0.330079 0.313755,-0.04434 0.619631,-0.113876 0.923828,-0.197266 0.01127,-0.0061 0.0239,-0.01128 0.03516,-0.01758 0.02032,-0.0056 0.03896,-0.01063 0.05859,-0.01563 0.03584,-0.01754 0.07072,-0.03752 0.107422,-0.05273 1.455772,-0.58687 2.444013,-2.017275 2.445313,-3.544922 0.0016,-1.710143 0,-3.418929 0,-5.128907 0,-0.07843 0.0064,-0.159255 -0.02539,-0.234375 0.132979,-0.397423 -0.211116,-0.803231 -0.626953,-0.802734 z m 9,0 c -1.561439,0.0018 -3.122327,0.0011 -4.683594,0.002 -0.118639,0 -0.230879,0.02502 -0.333984,0.08789 -0.265452,0.160822 -0.351393,0.397953 -0.320313,0.6875 9e-4,0.0149 0.002,0.03002 0.002,0.04492 -0.0012,1.547336 -0.0034,2.431345 -0.0039,3.978515 0,0.392956 0.276483,1.188813 0.679688,1.195313 0.107543,0.0018 0.214892,0.0018 0.322265,0.002 0.987699,0.0019 2.006784,0.0039 2.994141,0.0059 -0.07852,0.434153 -0.283078,0.953971 -0.625,1.261719 -0.284906,0.256289 -0.38401,0.369932 -0.75,0.451172 -0.288667,0.06386 -0.513331,0.159748 -0.513672,0.384765 -2e-4,0.06436 0.0026,0.12867 0.0039,0.19336 l -0.0078,0.878906 c 0.0013,0.163635 0.0015,0.326764 0.0039,0.490234 0.0029,0.233289 0.07512,0.364159 0.314453,0.330079 0.313755,-0.04434 0.619631,-0.113876 0.923828,-0.197266 0.01127,-0.0061 0.0239,-0.01128 0.03516,-0.01758 0.02032,-0.0056 0.03896,-0.01063 0.05859,-0.01563 0.03584,-0.01754 0.07072,-0.03752 0.107422,-0.05273 1.455772,-0.58687 2.444013,-2.017275 2.445313,-3.544922 0.0016,-1.710143 0,-3.418929 0,-5.128907 0,-0.07843 0.0064,-0.159255 -0.02539,-0.234375 0.132979,-0.397423 -0.211116,-0.803231 -0.626953,-0.802734 z"
     style="opacity:0.2;fill:#000000;fill-opacity:1"
     inkscape:connector-curvature="0" /><path
     style="fill:#ffffff;fill-opacity:1"
     d="M 13.34375 10 C 11.782311 10.001796 10.221423 10.001113 8.6601562 10.001953 C 8.5415172 10.001953 8.4292769 10.026974 8.3261719 10.089844 C 8.0607199 10.250666 7.9747794 10.487797 8.0058594 10.777344 C 8.0067594 10.792244 8.0078125 10.807366 8.0078125 10.822266 C 8.0066125 12.369602 8.0044203 13.253611 8.0039062 14.800781 C 8.0039062 15.193737 8.2803888 15.989594 8.6835938 15.996094 C 8.7911367 15.99789 8.8984864 15.997882 9.0058594 15.998047 C 9.9935584 15.999947 11.012643 16.001906 12 16.003906 C 11.921475 16.438059 11.716922 16.957877 11.375 17.265625 C 11.090094 17.521914 10.99099 17.635557 10.625 17.716797 C 10.336333 17.780662 10.111669 17.876545 10.111328 18.101562 C 10.111128 18.165925 10.113934 18.230232 10.115234 18.294922 L 10.107422 19.173828 C 10.108722 19.337463 10.108928 19.500592 10.111328 19.664062 C 10.11423 19.897351 10.186451 20.028221 10.425781 19.994141 C 10.739536 19.949799 11.045412 19.880265 11.349609 19.796875 C 11.360879 19.790765 11.373506 19.785597 11.384766 19.779297 C 11.405086 19.773667 11.423729 19.768672 11.443359 19.763672 C 11.479202 19.746132 11.514081 19.726157 11.550781 19.710938 C 13.006553 19.124068 13.994794 17.693663 13.996094 16.166016 C 13.997708 14.455873 13.996094 12.747087 13.996094 11.037109 C 13.996094 10.958683 14.002453 10.877854 13.970703 10.802734 C 14.103682 10.405311 13.759587 9.999503 13.34375 10 z M 22.34375 10 C 20.782311 10.001796 19.221423 10.001113 17.660156 10.001953 C 17.541517 10.001953 17.429277 10.026974 17.326172 10.089844 C 17.06072 10.250666 16.974779 10.487797 17.005859 10.777344 C 17.006759 10.792244 17.007812 10.807366 17.007812 10.822266 C 17.006613 12.369602 17.00442 13.253611 17.003906 14.800781 C 17.003906 15.193737 17.280389 15.989594 17.683594 15.996094 C 17.791137 15.99789 17.898486 15.997882 18.005859 15.998047 C 18.993558 15.999947 20.012643 16.001906 21 16.003906 C 20.921475 16.438059 20.716922 16.957877 20.375 17.265625 C 20.090094 17.521914 19.99099 17.635557 19.625 17.716797 C 19.336333 17.780662 19.111669 17.876545 19.111328 18.101562 C 19.111128 18.165925 19.113934 18.230232 19.115234 18.294922 L 19.107422 19.173828 C 19.108722 19.337463 19.108928 19.500592 19.111328 19.664062 C 19.11423 19.897351 19.186451 20.028221 19.425781 19.994141 C 19.739536 19.949799 20.045412 19.880265 20.349609 19.796875 C 20.360879 19.790765 20.373506 19.785597 20.384766 19.779297 C 20.405086 19.773667 20.423729 19.768672 20.443359 19.763672 C 20.479202 19.746132 20.514081 19.726157 20.550781 19.710938 C 22.006553 19.124068 22.994794 17.693663 22.996094 16.166016 C 22.997708 14.455873 22.996094 12.747087 22.996094 11.037109 C 22.996094 10.958683 23.002453 10.877854 22.970703 10.802734 C 23.103682 10.405311 22.759587 9.999503 22.34375 10 z "
     transform="translate(-0.001,-9.5367432e-7)"
     id="path4295" /><path
     style="fill:#ffffff;fill-opacity:1;opacity:0.2"
     d="M 14.615234 2 C 14.597344 2.040015 14.559707 2.0246048 14.529297 2.0273438 C 14.103571 2.0634027 13.679947 2.110969 13.259766 2.1875 C 10.189257 2.7461912 7.6665579 4.1937586 5.7148438 6.5332031 C 4.1095058 8.4571286 3.2261622 10.66414 3.0351562 13.125 C 2.9987173 13.594875 2.9994137 14.063148 3.0195312 14.529297 C 3.025344 14.393236 3.0245816 14.257452 3.0351562 14.121094 C 3.2261622 11.660234 4.1095058 9.4532224 5.7148438 7.5292969 C 7.6665579 5.1898524 10.189257 3.7403318 13.259766 3.1816406 C 13.679947 3.1051096 14.103571 3.0594965 14.529297 3.0234375 C 14.559707 3.0206985 14.597344 3.0361087 14.615234 2.9960938 L 16.269531 2.9960938 C 16.499815 3.0488888 16.737093 3.0436865 16.970703 3.0703125 C 18.88694 3.2877337 20.653265 3.9025472 22.275391 4.9042969 C 23.146164 5.442144 23.934515 6.075589 24.638672 6.8046875 C 26.306886 8.531732 27.364287 10.55612 27.806641 12.873047 C 27.914717 13.439807 27.960634 14.010595 27.978516 14.583984 C 27.979987 14.557935 27.983006 14.531907 27.984375 14.505859 C 28.030305 13.622937 27.972309 12.745724 27.806641 11.876953 C 27.364287 9.5600264 26.306886 7.5356383 24.638672 5.8085938 C 23.934515 5.0794953 23.146164 4.4460502 22.275391 3.9082031 C 20.653265 2.9064534 18.88694 2.2935931 16.970703 2.0761719 C 16.737093 2.0495459 16.499815 2.052795 16.269531 2 L 14.615234 2 z M 14.998047 27.167969 C 14.996301 28.060831 14.995875 28.952782 14.996094 29.845703 C 14.996116 29.852326 14.997897 29.860538 14.998047 29.867188 C 14.997468 28.968891 14.995153 28.070067 15 27.171875 C 15.000014 27.169808 14.998057 27.169991 14.998047 27.167969 z "
     transform="translate(-0.001,-9.5367432e-7)"
     id="path4326" /><path
     style="fill:#000000;fill-opacity:1;opacity:0.3"
     d="M 3.0195312 13.527344 C 2.9738879 14.583364 3.0632543 15.631484 3.3046875 16.666016 C 3.5067802 17.533267 3.8090748 18.370962 4.2148438 19.171875 C 4.2504757 19.240035 4.2840434 19.30879 4.3203125 19.376953 C 4.9869332 20.637965 5.845315 21.761863 6.9199219 22.732422 C 7.4856545 23.243339 8.0895567 23.704125 8.7441406 24.103516 C 10.477327 25.160315 12.352023 25.743706 14.359375 25.951172 L 14.800781 25.998047 C 14.944728 26.000018 14.997405 26.035588 14.998047 26.173828 C 14.99869 25.839915 14.998198 25.505769 15 25.171875 C 15.00095 25.028555 14.946807 24.994187 14.800781 24.992188 L 14.359375 24.947266 C 12.352023 24.7398 10.477327 24.156408 8.7441406 23.099609 C 8.0895567 22.700218 7.4856545 22.237479 6.9199219 21.726562 C 5.845315 20.756004 4.9869332 19.632106 4.3203125 18.371094 C 4.2840434 18.302931 4.2504757 18.236129 4.2148438 18.167969 C 3.8090748 17.367056 3.5067802 16.527407 3.3046875 15.660156 C 3.1400227 14.954574 3.0506255 14.243393 3.0195312 13.527344 z M 27.976562 13.580078 C 27.954878 13.96404 27.926195 14.348668 27.876953 14.730469 C 27.726334 15.901256 27.443516 17.041754 27.001953 18.144531 C 26.998473 18.152751 26.991728 18.160369 26.986328 18.167969 C 26.824305 18.570708 26.639539 18.963102 26.447266 19.353516 C 26.067155 20.125825 25.615716 20.857796 25.109375 21.558594 C 24.880358 21.875673 24.647307 22.189942 24.388672 22.486328 C 24.164723 22.743308 23.960225 23.015719 23.722656 23.259766 C 23.568869 23.418305 23.417142 23.579589 23.263672 23.738281 C 22.905258 24.109372 22.532033 24.466588 22.142578 24.806641 C 20.408992 26.320689 18.48788 27.563955 16.410156 28.578125 C 15.993302 28.774527 15.536359 29.040084 15.003906 28.996094 C 15.001411 28.945298 14.99897 28.904291 14.998047 28.863281 C 14.998257 29.190879 14.996013 29.518103 14.996094 29.845703 C 14.996253 29.893173 15.001006 29.940968 15.003906 30 C 15.536359 30.04399 15.993302 29.778433 16.410156 29.582031 C 18.48788 28.567861 20.408992 27.324595 22.142578 25.810547 C 22.532033 25.470494 22.905258 25.115232 23.263672 24.744141 C 23.417142 24.585449 23.568869 24.424164 23.722656 24.265625 C 23.960225 24.021578 24.164723 23.749168 24.388672 23.492188 C 24.647307 23.195802 24.880358 22.879579 25.109375 22.5625 C 25.615716 21.861702 26.067155 21.131684 26.447266 20.359375 C 26.639539 19.968961 26.824305 19.574614 26.986328 19.171875 C 26.991728 19.164275 26.998473 19.158611 27.001953 19.150391 C 27.443516 18.047614 27.726334 16.905162 27.876953 15.734375 C 27.929543 15.326615 27.962832 14.9159 27.984375 14.505859 C 28.000502 14.195853 27.986445 13.888668 27.976562 13.580078 z "
     transform="translate(-0.001,-9.5367432e-7)"
     id="path4331" /></svg>

<?xml version="1.0" encoding="UTF-8" standalone="no"?>
<svg id="Layer_1" xmlns:rdf="http://www.w3.org/1999/02/22-rdf-syntax-ns#" xmlns="http://www.w3.org/2000/svg" xml:space="preserve" height="32" width="32" version="1.1" y="0px" x="0px" xmlns:cc="http://creativecommons.org/ns#" viewBox="-0.001 0 32 31.999999" xmlns:dc="http://purl.org/dc/elements/1.1/"><metadata id="metadata30"><rdf:RDF><cc:Work rdf:about=""><dc:format>image/svg+xml</dc:format><dc:type rdf:resource="http://purl.org/dc/dcmitype/StillImage"/><dc:title/></cc:Work></rdf:RDF></metadata><path id="path4173" fill="#16a05d" d="m27.805 11.877c-0.443-2.3169-1.499-4.3406-3.167-6.0676-0.704-0.7291-1.493-1.3627-2.364-1.9005-1.622-1.0018-3.389-1.6156-5.305-1.833-0.234-0.0266-0.471-0.0231-0.701-0.0759h-1.6533c-0.01789 0.040015-0.05622 0.025409-0.08663 0.028148-0.42573 0.036059-0.84939 0.082617-1.2696 0.15915-3.0705 0.55869-5.5921 2.007-7.5438 4.3464-1.6053 1.9239-2.4894 4.131-2.6804 6.5919-0.092494 1.1927-0.00285 2.3743 0.26925 3.5402 0.20209 0.86725 0.50396 1.7051 0.90973 2.506 0.035632 0.06816 0.070796 0.13632 0.10707 0.20449 0.66662 1.261 1.5241 2.3848 2.5987 3.3553 0.56573 0.51092 1.1704 0.97315 1.825 1.3725 1.7332 1.0568 3.6072 1.6399 5.6146 1.8474 0.44043 0.04552 0.44043 0.04552 0.44043 0.04552 0.14603 0.002 0.20105 0.03652 0.2001 0.17984-0.0066 1.223-0.0038 2.4461-0.0035 3.6692 0.000159 0.04747 0.0039 0.09479 0.0068 0.15382 0.53245 0.04399 0.99044-0.22133 1.4073-0.41773 2.0777-1.0142 3.9982-2.257 5.7318-3.7711 0.38946-0.34005 0.76212-0.69639 1.1205-1.0675 0.15347-0.15869 0.30567-0.32012 0.45946-0.47866 0.23757-0.24405 0.44315-0.5167 0.6671-0.77368 0.25864-0.29639 0.49082-0.61149 0.71984-0.92857 0.50634-0.7008 0.95852-1.4319 1.3386-2.2042 0.19227-0.39041 0.37536-0.78387 0.53738-1.1866 0.0054-0.0076 0.01267-0.0143 0.01615-0.02252 0.44156-1.1028 0.72459-2.2439 0.87521-3.4147 0.05259-0.40776 0.08663-0.81811 0.10817-1.2281 0.04593-0.88292-0.01346-1.7608-0.17913-2.6296z"/><path id="path4324" opacity=".2" d="m13.343 11.001c-1.5614 0.0018-3.1223 0.0011-4.6836 0.002-0.11864 0-0.23088 0.02502-0.33398 0.08789-0.26545 0.16082-0.35139 0.39795-0.32031 0.6875 0.0009 0.0149 0.00195 0.03002 0.00195 0.04492-0.0012 1.5473-0.00339 2.4313-0.00391 3.9785 0 0.39296 0.27648 1.1888 0.67969 1.1953 0.10754 0.0018 0.21489 0.0018 0.32227 0.002 0.9877 0.0019 2.0068 0.0039 2.9941 0.0059-0.07853 0.43415-0.28308 0.95397-0.625 1.2617-0.28491 0.25629-0.38401 0.36993-0.75 0.45117-0.28867 0.06386-0.51333 0.15975-0.51367 0.38476-0.0002 0.06436 0.0026 0.12867 0.0039 0.19336l-0.0078 0.87891c0.0013 0.16364 0.0015 0.32676 0.0039 0.49023 0.0029 0.23329 0.07512 0.36416 0.31445 0.33008 0.31376-0.04434 0.61963-0.11388 0.92383-0.19727 0.01127-0.0061 0.0239-0.01128 0.03516-0.01758 0.02032-0.0056 0.03896-0.01063 0.05859-0.01563 0.03584-0.01754 0.07072-0.03752 0.10742-0.05273 1.4558-0.58687 2.444-2.0173 2.4453-3.5449 0.0016-1.7101 0-3.4189 0-5.1289 0-0.07843 0.0064-0.15926-0.02539-0.23438 0.13298-0.39742-0.21112-0.80323-0.62695-0.80273zm9 0c-1.5614 0.0018-3.1223 0.0011-4.6836 0.002-0.11864 0-0.23088 0.02502-0.33398 0.08789-0.26545 0.16082-0.35139 0.39795-0.32031 0.6875 0.0009 0.0149 0.002 0.03002 0.002 0.04492-0.0012 1.5473-0.0034 2.4313-0.0039 3.9785 0 0.39296 0.27648 1.1888 0.67969 1.1953 0.10754 0.0018 0.21489 0.0018 0.32226 0.002 0.9877 0.0019 2.0068 0.0039 2.9941 0.0059-0.07852 0.43415-0.28308 0.95397-0.625 1.2617-0.28491 0.25629-0.38401 0.36993-0.75 0.45117-0.28867 0.06386-0.51333 0.15975-0.51367 0.38476-0.0002 0.06436 0.0026 0.12867 0.0039 0.19336l-0.0078 0.87891c0.0013 0.16364 0.0015 0.32676 0.0039 0.49023 0.0029 0.23329 0.07512 0.36416 0.31445 0.33008 0.31376-0.04434 0.61963-0.11388 0.92383-0.19727 0.01127-0.0061 0.0239-0.01128 0.03516-0.01758 0.02032-0.0056 0.03896-0.01063 0.05859-0.01563 0.03584-0.01754 0.07072-0.03752 0.10742-0.05273 1.4558-0.58687 2.444-2.0173 2.4453-3.5449 0.0016-1.7101 0-3.4189 0-5.1289 0-0.07843 0.0064-0.15926-0.02539-0.23438 0.13298-0.39742-0.21112-0.80323-0.62695-0.80273z"/><path id="path4295" d="m13.344 10c-1.562 0.002-3.123 0.001-4.6838 0.002-0.1187 0-0.2309 0.025-0.334 0.088-0.2655 0.161-0.3514 0.398-0.3203 0.687 0.0009 0.015 0.0019 0.03 0.0019 0.045-0.0012 1.548-0.0034 2.432-0.0039 3.979 0 0.393 0.2765 1.189 0.6797 1.195 0.1075 0.002 0.2149 0.002 0.3223 0.002 0.9877 0.002 2.0071 0.004 2.9941 0.006-0.079 0.434-0.283 0.954-0.625 1.262-0.285 0.256-0.384 0.37-0.75 0.451-0.289 0.064-0.513 0.16-0.514 0.385 0 0.064 0.003 0.128 0.004 0.193l-0.008 0.879c0.002 0.163 0.002 0.327 0.004 0.49 0.003 0.233 0.075 0.364 0.315 0.33 0.314-0.044 0.619-0.114 0.924-0.197 0.011-0.006 0.024-0.011 0.035-0.018 0.02-0.005 0.039-0.01 0.058-0.015 0.036-0.018 0.071-0.038 0.108-0.053 1.456-0.587 2.444-2.017 2.445-3.545 0.002-1.71 0-3.419 0-5.129 0-0.078 0.006-0.159-0.025-0.234 0.133-0.398-0.211-0.8035-0.627-0.803zm9 0c-1.562 0.002-3.123 0.001-4.684 0.002-0.118 0-0.231 0.025-0.334 0.088-0.265 0.161-0.351 0.398-0.32 0.687 0.001 0.015 0.002 0.03 0.002 0.045-0.001 1.548-0.004 2.432-0.004 3.979 0 0.393 0.276 1.189 0.68 1.195 0.107 0.002 0.214 0.002 0.322 0.002 0.988 0.002 2.007 0.004 2.994 0.006-0.079 0.434-0.283 0.954-0.625 1.262-0.285 0.256-0.384 0.37-0.75 0.451-0.289 0.064-0.513 0.16-0.514 0.385 0 0.064 0.003 0.128 0.004 0.193l-0.008 0.879c0.002 0.163 0.002 0.327 0.004 0.49 0.003 0.233 0.075 0.364 0.315 0.33 0.314-0.044 0.619-0.114 0.924-0.197 0.011-0.006 0.024-0.011 0.035-0.018 0.02-0.005 0.039-0.01 0.058-0.015 0.036-0.018 0.071-0.038 0.108-0.053 1.456-0.587 2.444-2.017 2.445-3.545 0.002-1.71 0-3.419 0-5.129 0-0.078 0.006-0.159-0.025-0.234 0.133-0.398-0.211-0.8035-0.627-0.803z" transform="translate(-.001 -9.5367e-7)" fill="#fff"/><path id="path4326" opacity=".2" d="m14.615 2c-0.018 0.04-0.055 0.0246-0.086 0.0273-0.425 0.0361-0.849 0.0837-1.269 0.1602-3.071 0.5587-5.5934 2.0063-7.5452 4.3457-1.6053 1.9239-2.4886 4.1308-2.6796 6.5918-0.0365 0.47-0.0358 0.938-0.0157 1.404 0.0058-0.136 0.0051-0.272 0.0157-0.408 0.191-2.461 1.0743-4.6678 2.6796-6.5917 1.9518-2.3394 4.4742-3.789 7.5452-4.3477 0.42-0.0765 0.844-0.1221 1.269-0.1582 0.031-0.0027 0.068 0.0127 0.086-0.0273h1.655c0.23 0.0528 0.467 0.0476 0.701 0.0742 1.916 0.2174 3.682 0.8322 5.304 1.834 0.871 0.5378 1.66 1.1713 2.364 1.9004 1.668 1.727 2.725 3.7513 3.168 6.0683 0.108 0.567 0.154 1.138 0.172 1.711 0.001-0.026 0.004-0.052 0.005-0.078 0.046-0.883-0.012-1.76-0.177-2.629-0.443-2.317-1.5-4.3414-3.168-6.0684-0.704-0.7291-1.493-1.3625-2.364-1.9004-1.622-1.0017-3.388-1.6146-5.304-1.832-0.234-0.0267-0.471-0.0234-0.701-0.0762h-1.655zm0.383 25.168c-0.002 0.893-0.002 1.785-0.002 2.678 0 0.006 0.002 0.015 0.002 0.021-0.001-0.898-0.003-1.797 0.002-2.695 0-0.002-0.002-0.002-0.002-0.004z" transform="translate(-.001 -9.5367e-7)" fill="#fff"/><path id="path4331" opacity=".2" d="m3.0185 14.523c-0.045643 1.056 0.043723 2.1041 0.28516 3.1387 0.20209 0.86725 0.50439 1.7049 0.91016 2.5059 0.035632 0.06816 0.0692 0.13692 0.10547 0.20508 0.66662 1.261 1.525 2.3849 2.5996 3.3555 0.56573 0.51092 1.1696 0.9717 1.8242 1.3711 1.7332 1.0568 3.6079 1.6402 5.6152 1.8477l0.44141 0.04687c0.14395 0.002 0.19662 0.03754 0.19727 0.17578 0.000643-0.33391 0.000151-0.66806 0.002-1.002 0.00095-0.14332-0.05319-0.17769-0.19922-0.17969l-0.44141-0.04492c-2.007-0.208-3.882-0.791-5.6149-1.848-0.6545-0.4-1.2584-0.862-1.8242-1.373-1.0746-0.971-1.933-2.095-2.5996-3.356-0.0363-0.068-0.0698-0.135-0.1055-0.203-0.4057-0.801-0.708-1.64-0.9101-2.508-0.1647-0.705-0.2541-1.416-0.2852-2.132zm24.957 0.05273c-0.02168 0.38396-0.05037 0.76859-0.09961 1.1504-0.15062 1.1708-0.43344 2.3113-0.875 3.4141-0.0035 0.0082-0.01022 0.01584-0.01563 0.02344-0.16202 0.40274-0.34679 0.79513-0.53906 1.1855-0.38011 0.77231-0.83155 1.5043-1.3379 2.2051-0.22902 0.31708-0.46207 0.63135-0.7207 0.92773-0.22395 0.25698-0.42845 0.52939-0.66602 0.77344-0.15379 0.15854-0.30551 0.31982-0.45898 0.47852-0.35841 0.37109-0.73164 0.72831-1.1211 1.0684-1.7336 1.514-3.6547 2.7573-5.7324 3.7715-0.41685 0.1964-0.8738 0.46196-1.4062 0.41797-0.0025-0.0508-0.0049-0.0918-0.0059-0.13281 0.00021 0.3276-0.002 0.65482-0.002 0.98242 0.000159 0.04747 0.0049 0.09527 0.0078 0.1543 0.53245 0.04399 0.9894-0.22157 1.4062-0.41797 2.0777-1.0142 3.9988-2.2574 5.7324-3.7715 0.38946-0.34005 0.76268-0.69532 1.1211-1.0664 0.15347-0.15869 0.3052-0.31998 0.45898-0.47852 0.23757-0.24405 0.44207-0.51646 0.66602-0.77344 0.25864-0.29639 0.49169-0.61261 0.7207-0.92969 0.50634-0.7008 0.95778-1.4308 1.3379-2.2031 0.19227-0.39041 0.37704-0.78476 0.53906-1.1875 0.0054-0.0076 0.01215-0.01326 0.01563-0.02148 0.44156-1.1028 0.72438-2.2452 0.875-3.416 0.05259-0.40776 0.08588-0.81848 0.10742-1.2285 0.01613-0.31001 0.0021-0.61719-0.0078-0.92578z"/></svg>
